X: 9066
T: Humors of Lanacane (with piano acc.)
C: BB
R: jig
Q: 1/8=320
M: 6/8
L: 1/8
V: 1 program 1 73 %flute
V: 2 volume=70 clef=bass m=D program 1 00
K: Dm
[V:1] D/E/ | "Dm"FEF "C"Gcc | "Edim"^cBc "Dm"d2 e | "F"fga "Am"ecA |"Bb"Bcd "A7"^cGE |
[V:2] z|D,2[AFD]C,2[CGE]|^C,2[E,B,G]D,2[AFD]|F,,2[FCA]A,,2[AEC]|B,,2[BFD]A,,2[GE^C]|
%
[V:1] "Dm"FDD ADD | "A"^cDD "Dm"d2 A | "Bb"BAd "Dm"AFD | "C"ECE "Dm"D2 :|
[V:2] D,2[AFD]F,,2[AFD]|A,,2[GE^C]D,2[AFD]|B,,2[BFD]D,2[AFD]|C,2[CGE][D,2A,2F2]:|
%
[V:1] A|"F"a2 f "C"gfe | "Dm"ded "C7"cBA | "Gm"B2 G "F"AGF | "C"EFG E3 |
[V:2] z|F,,2[FCA]C,2[CGE]|D,2[AFD]C,2[BGE]|G,,2[GDB]F,,2[FCA]|C,2[CGE]G,,2[CGE]|
%
[V:1] "Dm"FDD ADD | "A"^cDD "Dm"d2 e | "F"fga "Am"ecA | "C7"BGE "Dm"D2 :|
[V:2] D,2[AFD]A,,2[AFD]|A,,2[GE^C]D,2[AFD]|F,,2[FCA]A,,2[AEC]|C,2[BGE][D,2A,2F2]:|
%%%%%%tune repeat
[V:1] D/E/ | "Dm"FEF "C"Gcc | "Edim"^cBc "Dm"d2 e | "F"fga "Am"ecA |"Bb"Bcd "A7"^cGE |
[V:2] z|D,2[AFD]C,2[CGE]|^C,2[E,B,G]D,2[AFD]|F,,2[FCA]A,,2[AEC]|B,,2[BFD]A,,2[GE^C]|
%
[V:1] "Dm"FDD ADD | "A"^cDD "Dm"d2 A | "Bb"BAd "Dm"AFD | "C"ECE "Dm"D2 :|
[V:2] D,2[AFD]F,,2[AFD]|A,,2[GE^C]D,2[AFD]|B,,2[BFD]D,2[AFD]|C,2[CGE][D,2A,2F2]:|
%
[V:1] A|"F"a2 f "C"gfe | "Dm"ded "C7"cBA | "Gm"B2 G "F"AGF | "C"EFG E3 |
[V:2] z|F,,2[FCA]C,2[CGE]|D,2[AFD]C,2[BGE]|G,,2[GDB]F,,2[FCA]|C,2[CGE]G,,2[CGE]|
%
[V:1] "Dm"FDD ADD | "A"^cDD "Dm"d2 e | "F"fga "Am"ecA |1 "C7"BGE "Dm"D2 :|2\
"C7"BGE "Dm"D3-|D6||
[V:2] D,2[AFD]A,,2[AFD]|A,,2[GE^C]D,2[AFD]|F,,2[FCA]A,,2[AEC]|1 C,2[BGE][D,2A,2F2]:|\
[2 C,2[BGE][D,3-A,3-F3-]|[D,6A,6F6]||


%%%%%%%%%%%%%%%%%%%%%%%%%%%%%%%%%%%%%%%%%%%

